X: 464
T: The silver tip
C:anon.
O:Ireland
B:Francis O'Neill: "The Dance Music of Ireland" (1907) no. 464
R:Reel
Z:Transcribed by Frank Nordberg - http://www.musicaviva.com
F:http://www.musicaviva.com/abc/tunes/ireland/oneill-1001/oneill-1001-046
4.abc
m: Tn = (3n/o/n/
M:C|
L:1/8
K:D
DEFG ABAF|(3GFE cE dEcE|DEFG ABAF|GEcE (TED)D z:|d2(fd) efge|(3fga (fd) e
cAG|
FAAB cBcG|EFG(E TFDD)D z|d2fd efge|(3fga (fd)ecAF|GBGB FAFA|EFG(E TFD)D z
|]
W:
W:
W:  From Musica Viva - http://www.musicaviva.com
W:  the Internet center for free sheet music downloads.


